icons/codespaces-16.svg

<svg width="16" height="16" viewBox="0 0 16 16" fill="none" xmlns="http://www.w3.org/2000/svg">
<path fill-rule="evenodd" clip-rule="evenodd" d="M1.75 1.5C1.61193 1.5 1.5 1.61193 1.5 1.75V14.25C1.5 14.3881 1.61193 14.5 1.75 14.5H5.25C5.66421 14.5 6 14.8358 6 15.25C6 15.6642 5.66421 16 5.25 16H1.75C0.783502 16 0 15.2165 0 14.25V1.75C0 0.783502 0.783501 0 1.75 0H14.25C15.2165 0 16 0.783502 16 1.75V8.75C16 9.16421 15.6642 9.5 15.25 9.5C14.8358 9.5 14.5 9.16421 14.5 8.75V1.75C14.5 1.61193 14.3881 1.5 14.25 1.5H1.75ZM3 3.75C3 3.33579 3.33579 3 3.75 3H6.25C6.66421 3 7 3.33579 7 3.75C7 4.16421 6.66421 4.5 6.25 4.5H3.75C3.33579 4.5 3 4.16421 3 3.75ZM8 3.75C8 3.33579 8.33579 3 8.75 3H12.25C12.6642 3 13 3.33579 13 3.75C13 4.16421 12.6642 4.5 12.25 4.5H8.75C8.33579 4.5 8 4.16421 8 3.75ZM4 6.75C4 6.33579 4.33579 6 4.75 6H9.25C9.66421 6 10 6.33579 10 6.75C10 7.16421 9.66421 7.5 9.25 7.5H4.75C4.33579 7.5 4 7.16421 4 6.75ZM3 9.75C3 9.33579 3.33579 9 3.75 9H5.25C5.66421 9 6 9.33579 6 9.75C6 10.1642 5.66421 10.5 5.25 10.5H3.75C3.33579 10.5 3 10.1642 3 9.75ZM10.2803 10.7197C10.5732 11.0126 10.5732 11.4874 10.2803 11.7803L8.81066 13.25L10.2803 14.7197C10.5732 15.0126 10.5732 15.4874 10.2803 15.7803C9.98744 16.0732 9.51256 16.0732 9.21967 15.7803L7.21967 13.7803C6.92678 13.4874 6.92678 13.0126 7.21967 12.7197L9.21967 10.7197C9.51256 10.4268 9.98744 10.4268 10.2803 10.7197ZM12.7197 10.7197C13.0126 10.4268 13.4874 10.4268 13.7803 10.7197L15.7803 12.7197C16.0732 13.0126 16.0732 13.4874 15.7803 13.7803L13.7803 15.7803C13.4874 16.0732 13.0126 16.0732 12.7197 15.7803C12.4268 15.4874 12.4268 15.0126 12.7197 14.7197L14.1893 13.25L12.7197 11.7803C12.4268 11.4874 12.4268 11.0126 12.7197 10.7197Z" fill="black"/>
</svg>

<svg xmlns="http://www.w3.org/2000/svg" width="16" height="16" viewBox="0 0 16 16"><path fill-rule="evenodd" d="M1.75 1.5a.25.25 0 00-.25.25v12.5c0 .138.112.25.25.25h3.5a.75.75 0 010 1.5h-3.5A1.75 1.75 0 010 14.25V1.75C0 .784.784 0 1.75 0h12.5C15.216 0 16 .784 16 1.75v7a.75.75 0 01-1.5 0v-7a.25.25 0 00-.25-.25H1.75zM3 3.75A.75.75 0 013.75 3h2.5a.75.75 0 010 1.5h-2.5A.75.75 0 013 3.75zm5 0A.75.75 0 018.75 3h3.5a.75.75 0 010 1.5h-3.5A.75.75 0 018 3.75zm-4 3A.75.75 0 014.75 6h4.5a.75.75 0 010 1.5h-4.5A.75.75 0 014 6.75zm-1 3A.75.75 0 013.75 9h1.5a.75.75 0 010 1.5h-1.5A.75.75 0 013 9.75zm7.28.97a.75.75 0 010 1.06l-1.47 1.47 1.47 1.47a.75.75 0 11-1.06 1.06l-2-2a.75.75 0 010-1.06l2-2a.75.75 0 011.06 0zm2.44 0a.75.75 0 011.06 0l2 2a.75.75 0 010 1.06l-2 2a.75.75 0 11-1.06-1.06l1.47-1.47-1.47-1.47a.75.75 0 010-1.06z"/></svg>
